lib/flags/mx-mexico.svg

<svg xmlns="http://www.w3.org/2000/svg" fill="none" aria-hidden="true" viewBox="0 0 42 30"><g id="Country=MX - Mexico, Size=sm (36x24)" filter="url(#filter0_dd_91_26256)"><g clip-path="url(#clip0_91_26256)"><g id="flag"><mask id="mask0_91_26256" width="36" height="24" x="3" y="2" maskUnits="userSpaceOnUse" style="mask-type:alpha"><rect id="mask" width="36" height="24" x="3" y="2" fill="white"/></mask><g mask="url(#mask0_91_26256)"><g id="contents"><path id="bottom" fill="#D9071E" fill-rule="evenodd" d="M27.75 2H39V26H27.75V2Z" clip-rule="evenodd"/><path id="left" fill="#006923" fill-rule="evenodd" d="M3 2H16.5V26H3V2Z" clip-rule="evenodd"/><path id="middle" fill="white" fill-rule="evenodd" d="M14.25 2H27.75V26H14.25V2Z" clip-rule="evenodd"/><g id="mark"><path id="Path 141" fill="#A8AC71" fill-rule="evenodd" d="M17.6873 10.342C17.5677 10.7971 17.6455 10.9046 18.2236 10.9046C18.2537 10.9046 18.3013 10.98 18.3532 11.0621C18.41 11.1521 18.4719 11.2501 18.5211 11.2652C18.5 11.29 18.2802 11.6432 18.2792 12.2652C18.279 12.3933 18.346 12.6044 18.4104 12.8071C18.4804 13.0276 18.5473 13.2383 18.5211 13.3215C18.4785 13.457 18.2874 13.3094 18.1393 13.1949C18.0546 13.1295 17.984 13.0749 17.9633 13.0904C17.8575 13.1695 17.8029 12.5434 17.7699 12.165C17.7553 11.9966 17.7449 11.8773 17.7361 11.8912C17.6992 11.8189 17.6841 11.73 17.6692 11.6421C17.6369 11.4512 17.6053 11.2652 17.3518 11.2652H16.6992V11.6923C16.6992 11.6923 17.0768 11.6923 17.0768 12.4869C17.083 12.6056 17.2593 13.6505 17.6873 13.6558C17.4364 13.6609 17.4383 13.7054 17.4394 13.7314L17.4396 13.7361C17.4396 14.3752 18.0405 14.4443 18.6022 14.2639C18.9398 14.1555 19.2981 13.9438 19.5665 13.6828C19.9452 13.3146 19.9919 12.8378 19.4947 12.5763C19.3177 12.4833 19.1256 12.4473 18.8569 12.434C18.9101 12.2939 18.8598 12.1687 18.8205 12.0711C18.7877 11.9894 18.7626 11.927 18.8123 11.8912C19.3754 11.4852 19.4257 11.111 19.0159 10.7753C18.9627 10.7317 18.9112 10.6727 18.8583 10.6119L18.8583 10.6119C18.7584 10.4974 18.6532 10.3767 18.5211 10.342C18.5822 10.2325 18.6645 10.0998 18.7677 9.94689L17.8032 9.43213C17.6284 9.69099 17.6576 9.89346 17.6831 10.0699C17.6971 10.1668 17.7099 10.2558 17.6873 10.342ZM17.6983 13.6557L17.6873 13.6558ZM17.6983 13.6557C17.7103 13.6555 17.7229 13.6554 17.7361 13.6554L17.719 13.6553L17.6983 13.6557ZM18.7361 13.0081L18.7186 13.0248L18.7305 13.0152C18.7323 13.0124 18.7342 13.01 18.7361 13.0081ZM18.2257 13.3215C18.2255 13.3216 18.2261 13.3215 18.2274 13.3213L18.2276 13.3212L18.2383 13.3194C18.2339 13.32 18.2299 13.3208 18.2276 13.3212L18.2257 13.3215Z" clip-rule="evenodd"/><path id="Path 138" fill="#FCCA3D" fill-rule="evenodd" d="M19.1822 9.91357C19.1822 9.91357 18.4095 10.4462 18.554 11.0141C18.6985 11.582 20.2212 11.0141 20.0371 10.4638C19.853 9.91357 19.1822 9.91357 19.1822 9.91357Z" clip-rule="evenodd"/><path id="Path 134" fill="#8F4620" fill-rule="evenodd" d="M24.6745 14.403C24.6745 14.403 25.7151 11.6617 24.061 10.2426C22.4068 8.8236 20.4953 8.91855 20.4953 8.91855C20.4953 8.91855 19.9448 9.2821 20.4953 9.55935C21.0458 9.83661 20.8151 10.1025 20.8151 10.1025C20.8151 10.1025 19.8933 9.27041 19.2813 9.75652C18.6693 10.2426 19.8526 10.1686 19.7273 10.5347C19.6021 10.9007 19.0714 12.5257 19.8468 13.3462C20.6222 14.1666 19.1137 13.9886 19.4205 13.9886C19.7273 13.9886 20.8151 14.1796 20.8151 13.9886C20.8151 13.7976 21.1933 14.7311 21.517 14.7311C21.8406 14.7311 22.0904 14.403 22.0904 14.403C22.0904 14.403 22.5441 14.7311 22.8206 14.7311C23.097 14.7311 24.061 14.5164 24.061 14.5164L22.2391 13.1519C22.2391 13.1519 22.3489 12.55 22.0904 12.4197C21.832 12.2895 24.1624 13.5742 24.3449 13.9886C24.5274 14.403 24.6745 14.403 24.6745 14.403Z" clip-rule="evenodd"/><path id="Path 135" fill="#9FAB2F" d="M15.4497 13.7266C15.4497 13.7266 15.6186 13.248 15.7995 13.2148C15.9562 13.186 16.2856 13.4441 16.2856 13.4441C16.8709 16.334 18.2861 17.4627 20.6342 17.4627C23.01 17.4627 24.4499 16.605 25.2902 13.9398C25.2902 13.9398 25.7369 13.5343 25.8945 13.5794C26.0661 13.6284 26.2811 14.1649 26.2811 14.1649C25.3171 17.2225 23.4958 18.5839 20.6342 18.5839C17.745 18.5839 16.1217 17.0448 15.4497 13.7266Z"/><path id="Path 136" fill="#2FC2DC" fill-rule="evenodd" d="M18.0007 15.6567C18.0007 15.6567 21.3806 16.2941 22.7147 16.2941C24.0488 16.2941 21.5442 17.2619 20.5669 17.2619C20.1395 17.2619 19.6242 17.0315 19.0211 16.5708C18.9131 16.4883 19.0177 16.3035 18.6885 16.301C18.2294 16.2974 17.659 16.2017 17.7136 16.1434C17.7655 16.0879 18.4335 16.0711 18.3691 16.0105C18.2629 15.9104 18.0007 15.6567 18.0007 15.6567Z" clip-rule="evenodd"/><rect id="Rectangle 38" width="2.25" height="1.07143" x="19.5" y="16.1001" fill="#F9AA51" rx="0.166667"/><path id="Path 137" fill="#259485" d="M16.6973 14.1358C16.6973 14.1358 16.6973 13.7607 16.983 13.5615C17.3105 13.3331 17.6182 13.5615 17.6182 13.5615C18.8168 15.0801 20.6093 15.5797 23.1163 15.0583C23.1163 15.0583 23.8658 15.276 23.9035 15.419C23.9513 15.6006 23.3726 16.032 23.3726 16.032C20.442 16.6415 18.1766 16.0101 16.6973 14.1358Z"/><path id="Path 139" fill="#FCCA3D" fill-rule="evenodd" d="M21.6651 14.3506C21.6651 14.3506 20.2998 14.9895 20.7549 14.9895C21.21 14.9895 22.9912 15.3089 22.6446 14.9895C22.298 14.67 21.6651 14.3506 21.6651 14.3506Z" clip-rule="evenodd"/><path id="Path 140" fill="#FCCA3D" fill-rule="evenodd" d="M20.0509 13.5884C20.0509 13.5884 19.7915 12.9224 19.2516 12.9224C18.7117 12.9224 18.8641 13.4687 18.6045 13.4687C18.3449 13.4687 18.8464 13.8532 19.0699 13.8532C19.2935 13.8532 20.0509 13.5884 20.0509 13.5884Z" clip-rule="evenodd"/></g></g></g></g></g></g><defs><filter id="filter0_dd_91_26256" width="42" height="30" x="0" y="0" color-interpolation-filters="sRGB" filterUnits="userSpaceOnUse"><feFlood flood-opacity="0" result="BackgroundImageFix"/><feColorMatrix in="SourceAlpha" result="hardAlpha" values="0 0 0 0 0 0 0 0 0 0 0 0 0 0 0 0 0 0 127 0"/><feOffset dy="1"/><feGaussianBlur stdDeviation="1"/><feColorMatrix values="0 0 0 0 0.0627451 0 0 0 0 0.0941176 0 0 0 0 0.156863 0 0 0 0.06 0"/><feBlend in2="BackgroundImageFix" result="effect1_dropShadow_91_26256"/><feColorMatrix in="SourceAlpha" result="hardAlpha" values="0 0 0 0 0 0 0 0 0 0 0 0 0 0 0 0 0 0 127 0"/><feOffset dy="1"/><feGaussianBlur stdDeviation="1.5"/><feColorMatrix values="0 0 0 0 0.0627451 0 0 0 0 0.0941176 0 0 0 0 0.156863 0 0 0 0.1 0"/><feBlend in2="effect1_dropShadow_91_26256" result="effect2_dropShadow_91_26256"/><feBlend in="SourceGraphic" in2="effect2_dropShadow_91_26256" result="shape"/></filter><clipPath id="clip0_91_26256"><rect width="36" height="24" x="3" y="2" fill="white" rx="2"/></clipPath></defs></svg>

<svg xmlns="http://www.w3.org/2000/svg" fill="none" aria-hidden="true" viewBox="0 0 42 30"><g filter="url(#a)"><g clip-path="url(#b)"><mask id="c" width="36" height="24" x="3" y="2" maskUnits="userSpaceOnUse" style="mask-type:alpha"><path fill="#fff" d="M3 2h36v24H3z"/></mask><g mask="url(#c)"><path fill="#D9071E" fill-rule="evenodd" d="M27.75 2H39v24H27.75V2Z" clip-rule="evenodd"/><path fill="#006923" fill-rule="evenodd" d="M3 2h13.5v24H3V2Z" clip-rule="evenodd"/><path fill="#fff" fill-rule="evenodd" d="M14.25 2h13.5v24h-13.5V2Z" clip-rule="evenodd"/><path fill="#A8AC71" fill-rule="evenodd" d="M17.687 10.342c-.12.455-.042.563.537.563.03 0 .077.075.13.157.056.09.118.188.167.203-.021.025-.24.378-.242 1 0 .128.067.34.131.542.07.22.137.431.111.514-.043.136-.234-.012-.382-.126-.084-.066-.155-.12-.176-.105-.105.08-.16-.547-.193-.925-.015-.168-.025-.288-.034-.274a.88.88 0 0 1-.067-.249c-.032-.19-.064-.377-.317-.377h-.653v.427s.378 0 .378.795c.006.119.182 1.163.61 1.169-.25.005-.249.05-.248.075v.005c0 .64.602.708 1.163.528a2.57 2.57 0 0 0 .965-.581c.378-.368.425-.845-.072-1.107-.177-.093-.37-.129-.638-.142.053-.14.003-.265-.037-.363-.032-.082-.057-.144-.008-.18.563-.406.614-.78.204-1.116a1.413 1.413 0 0 1-.158-.163c-.1-.115-.205-.235-.337-.27a5.63 5.63 0 0 1 .247-.395l-.965-.515c-.175.259-.145.461-.12.638a.684.684 0 0 1 .004.272Zm.011 3.314h-.01Zm0 0h.038-.036Zm1.038-.648-.017.017.011-.01a.043.043 0 0 1 .006-.007Zm-.51.314h.001l.011-.003-.01.002h-.002Z" clip-rule="evenodd"/><path fill="#FCCA3D" fill-rule="evenodd" d="M19.182 9.914s-.772.532-.628 1.1c.145.568 1.667 0 1.483-.55-.184-.55-.855-.55-.855-.55Z" clip-rule="evenodd"/><path fill="#8F4620" fill-rule="evenodd" d="M24.674 14.403s1.041-2.741-.613-4.16c-1.654-1.42-3.566-1.324-3.566-1.324s-.55.363 0 .64c.55.278.32.543.32.543s-.922-.832-1.534-.345c-.612.486.572.412.446.778-.125.366-.656 1.99.12 2.811.775.82-.733.643-.427.643.307 0 1.395.19 1.395 0 0-.191.378.742.702.742.324 0 .573-.328.573-.328s.454.328.73.328c.277 0 1.241-.215 1.241-.215l-1.822-1.364s.11-.602-.149-.732c-.258-.13 2.072 1.154 2.255 1.569.182.414.33.414.33.414Z" clip-rule="evenodd"/><path fill="#9FAB2F" d="M15.45 13.727s.169-.479.35-.512c.156-.029.486.23.486.23.585 2.889 2 4.018 4.348 4.018 2.376 0 3.816-.858 4.656-3.523 0 0 .447-.406.605-.36.171.048.386.585.386.585-.964 3.058-2.785 4.419-5.647 4.419-2.889 0-4.512-1.54-5.184-4.857Z"/><path fill="#2FC2DC" fill-rule="evenodd" d="M18 15.657s3.38.637 4.715.637c1.334 0-1.17.968-2.148.968-.427 0-.943-.23-1.546-.691-.108-.083-.003-.268-.332-.27-.46-.004-1.03-.1-.975-.158.052-.055.72-.072.655-.133-.106-.1-.368-.353-.368-.353Z" clip-rule="evenodd"/><rect width="2.25" height="1.071" x="19.5" y="16.1" fill="#F9AA51" rx=".167"/><path fill="#259485" d="M16.697 14.136s0-.375.286-.574c.328-.229.635 0 .635 0 1.199 1.518 2.991 2.018 5.498 1.496 0 0 .75.218.788.361.047.182-.531.613-.531.613-2.931.61-5.196-.022-6.676-1.896Z"/><path fill="#FCCA3D" fill-rule="evenodd" d="M21.665 14.35s-1.365.64-.91.64c.455 0 2.236.319 1.89 0-.347-.32-.98-.64-.98-.64Zm-1.615-.762s-.259-.666-.798-.666c-.54 0-.388.547-.647.547-.26 0 .241.384.465.384.224 0 .98-.265.98-.265Z" clip-rule="evenodd"/></g></g></g><defs><clipPath id="b"><rect width="36" height="24" x="3" y="2" fill="#fff" rx="2"/></clipPath><filter id="a" width="42" height="30" x="0" y="0" color-interpolation-filters="sRGB" filterUnits="userSpaceOnUse"><feFlood flood-opacity="0" result="BackgroundImageFix"/><feColorMatrix in="SourceAlpha" result="hardAlpha" values="0 0 0 0 0 0 0 0 0 0 0 0 0 0 0 0 0 0 127 0"/><feOffset dy="1"/><feGaussianBlur stdDeviation="1"/><feColorMatrix values="0 0 0 0 0.0627451 0 0 0 0 0.0941176 0 0 0 0 0.156863 0 0 0 0.06 0"/><feBlend in2="BackgroundImageFix" result="effect1_dropShadow_91_26256"/><feColorMatrix in="SourceAlpha" result="hardAlpha" values="0 0 0 0 0 0 0 0 0 0 0 0 0 0 0 0 0 0 127 0"/><feOffset dy="1"/><feGaussianBlur stdDeviation="1.5"/><feColorMatrix values="0 0 0 0 0.0627451 0 0 0 0 0.0941176 0 0 0 0 0.156863 0 0 0 0.1 0"/><feBlend in2="effect1_dropShadow_91_26256" result="effect2_dropShadow_91_26256"/><feBlend in="SourceGraphic" in2="effect2_dropShadow_91_26256" result="shape"/></filter></defs></svg>
